icons/4_Outdated/Contabo v1.svg

<svg width="1024" height="1024" fill="none" xmlns="http://www.w3.org/2000/svg"><g clip-path="url(#a)"><path d="M512 1024c282.77 0 512-229.23 512-512S794.77 0 512 0 0 229.23 0 512s229.23 512 512 512Z" fill="#9ABEFF"/><path d="M767.94 283.172c-28.94 4.8-56.43 9.8-82.47 15h-.17c-225.64 37.393-362.307 89.603-410 156.63-13.207 18.547-19.594 38.233-19.16 59.06v6.68c-.474 18.48 5.913 36.35 19.16 53.61 42.466 55.393 155.553 104.48 339.26 147.26l.29.08.31.08c24.353 5.84 50.036 12.263 77.05 19.27l-.71-.73c-207.214-163.567-181.734-315.88 76.44-456.94ZM494 511.372c-5.77 58.7 17.42 119.06 69 179.95-146.58-38.32-238.77-81.07-274.35-127.41-10.92-14.24-16.05-28.27-15.65-42.91v-7.46c-.36-17.26 4.89-33.26 16-48.92 21.79-30.62 65.71-58.62 130.56-83.43 51.27-19.59 116.24-37.26 193.78-52.74-73.04 58.33-113.1 119.66-119.34 182.92Z" fill="#fff"/></g><defs><clipPath id="a"><path fill="#fff" d="M0 0h1024v1024H0z"/></clipPath></defs></svg>

<svg width="1024" height="1024" viewBox="0 0 1024 1024" fill="none" xmlns="http://www.w3.org/2000/svg">
<g clip-path="url(#clip0_3_518)">
<path d="M512 1024C794.77 1024 1024 794.77 1024 512C1024 229.23 794.77 0 512 0C229.23 0 0 229.23 0 512C0 794.77 229.23 1024 512 1024Z" fill="#9ABEFF"/>
<path d="M767.94 283.172C739 287.972 711.51 292.972 685.47 298.172H685.3C459.66 335.565 322.993 387.775 275.3 454.802C262.093 473.349 255.706 493.035 256.14 513.862V520.542C255.666 539.022 262.053 556.892 275.3 574.152C317.766 629.545 430.853 678.632 614.56 721.412L614.85 721.492L615.16 721.572C639.513 727.412 665.196 733.835 692.21 740.842L691.5 740.112C484.286 576.545 509.766 424.232 767.94 283.172ZM494 511.372C488.23 570.072 511.42 630.432 563 691.322C416.42 653.002 324.23 610.252 288.65 563.912C277.73 549.672 272.6 535.642 273 521.002V513.542C272.64 496.282 277.89 480.282 289 464.622C310.79 434.002 354.71 406.002 419.56 381.192C470.83 361.602 535.8 343.932 613.34 328.452C540.3 386.782 500.24 448.112 494 511.372Z" fill="white"/>
</g>
<defs>
<clipPath id="clip0_3_518">
<rect width="1024" height="1024" fill="white"/>
</clipPath>
</defs>
</svg>
